X: 83
T: Swannanoa Waltz
R: Waltz
S: https://trillian.mit.edu/~jc/music/abc/Intl/waltz/SwannanoaWaltz_D.abc
M: 3/4
L: 1/8
K: D
DE |:"D"F2 F2 ED | "G"B,2 B,2 B,A, | "D"F3 F ED | "(A)"A2 AF DE |
"D"F2 F2 ED | "G"B,2 B,2 B,A, | "A7"E2 EF F{GF}E |1 "D"D2 DA, DE :|2 "D"D2 DD AB |]
|:"D"d2 g2 f2 | "G"B4 {=cB}AB | "D"d2 g2 f2 | "(A)"a2 af dB |
"D"d2 g2 f2 | "G"B4 {=cB}AB | "A7"d(g f)(d A)B |1 "D"d3 B AB :|2 "D"d6 |]

